X:45
T: Song qing lang
N: C0059
O: China,Ningxia, Guyuan
S: I, 201, 2)]
N: Es existieren dazu verschiedene Varianten.
N: Vereinzelt Verzierungen. Bb - Eb
R: Xiaodiao. Nann liqing]
M: 2/4
L: 1/16
K: Bb
c2cfc2cc | c2cfc2c2 | c2cbg3b | c8 |
b3cf2fd | c8 |
gzgzc2cb | g3bg2f2 | g2e4ef | g8 |
g4c4 | b4g2f2 | e3fg2e2 | c8

@@@ Tune index: 6046
